svgs/duotone/cat.svg

<svg xmlns="http://www.w3.org/2000/svg" viewBox="0 0 576 512"><!--! Font Awesome Pro 6.0.0-alpha3 by @fontawesome - https://fontawesome.com License - https://fontawesome.com/license (Commercial License) --><defs><style>.fa-secondary{opacity:.4}</style></defs><path class="fa-primary" d="M488 144c-8.875 0-16 7.125-16 16s7.125 16 16 16s16-7.125 16-16S496.9 144 488 144zM408 144c-8.875 0-16 7.125-16 16s7.125 16 16 16s16-7.125 16-16S416.9 144 408 144zM160 278V288l64 32L196.3 236.1C183.5 247.8 171.1 261.2 160 278zM288 288V194.9c-13.8 2.334-30.18 6.607-47.33 14.22L288 288z"/><path class="fa-secondary" d="M322.6 192C316.4 192 303.9 192.2 288 194.9V288L240.7 209.1C226 215.6 210.9 224.6 196.3 236.1L224 320L160 288V192c0-53-43-96-96-96C46.38 96 32 110.4 32 128s14.38 32 32 32s32 14.38 32 32v256c0 35.25 28.75 64 64 64h176c8.875 0 16-7.125 16-15.1V480c0-17.62-14.38-32-32-32h-32l128-96v144c0 8.875 7.125 16 16 16h32c8.875 0 16-7.125 16-16V289.9c-10.25 2.625-20.88 4.5-32 4.5C386.3 294.4 334.5 250.4 322.6 192zM480 96h-64l-64-64v134.4c0 53 43 95.1 96 95.1s96-42.1 96-95.1V32L480 96zM408 176c-8.875 0-16-7.125-16-16s7.125-16 16-16s16 7.125 16 16S416.9 176 408 176zM488 176c-8.875 0-16-7.125-16-16s7.125-16 16-16s16 7.125 16 16S496.9 176 488 176z"/></svg>

<svg xmlns="http://www.w3.org/2000/svg" viewBox="0 0 576 512"><!-- Font Awesome Pro 6.0.0-alpha2 by @fontawesome - https://fontawesome.com License - https://fontawesome.com/license (Commercial License) --><defs><style>.fa-secondary{opacity:.4}</style></defs><path d="M322.625 192C316.41 192 303.906 192.213 288 194.902V288L240.674 209.121C226.049 215.613 210.908 224.611 196.326 236.979L224 320L160 288V192C160 139 117 96 64 96C46.375 96 32 110.375 32 128S46.375 160 64 160S96 174.375 96 192V448C96 483.25 124.75 512 160 512H336C344.875 512 352 504.875 352 496V480C352 462.375 337.625 448 320 448H288L416 352V496C416 504.875 423.125 512 432 512H464C472.875 512 480 504.875 480 496V289.875C469.75 292.5 459.125 294.375 448 294.375C386.25 294.375 334.5 250.375 322.625 192ZM480 96H416L352 32V166.375C352 219.375 395 262.375 448 262.375S544 219.375 544 166.375V32L480 96ZM408 176C399.125 176 392 168.875 392 160S399.125 144 408 144S424 151.125 424 160S416.875 176 408 176ZM488 176C479.125 176 472 168.875 472 160S479.125 144 488 144S504 151.125 504 160S496.875 176 488 176Z" class="fa-secondary"/><path d="M488 144C479.125 144 472 151.125 472 160S479.125 176 488 176S504 168.875 504 160S496.875 144 488 144ZM408 144C399.125 144 392 151.125 392 160S399.125 176 408 176S424 168.875 424 160S416.875 144 408 144ZM160 278V288L224 320L196.326 236.979C183.51 247.848 171.129 261.23 160 278ZM288 288V194.902C274.195 197.236 257.822 201.51 240.674 209.121L288 288Z" class="fa-primary"/></svg>
